X:23
T:Durham Rangers
R:hornpipe
H:Used for "Alexandra Park Road Stick Dance, N.22"
M:4/4
K:D
FG | ABAF A2 de | fgef d3 A | BcdB ABAF | G2 E2 E2 FG |
ABAF A2 de | fgef d3 A | BcdB ABAG | F2 D2 D2 :|
ag | fefg afdf | edcB A2 ef | ggag ffaf | g2 e2 e2 FG |
ABAF A2 de | fgef d3 A | BcdB ABAG | F2 D2 D2 :|

